X: 5795
T: Cal Callaghan's
R: reel
M: 4/4
K: Dmajor
~F3A GE~E2|FDFG ~A3G|~F3F GE~E2|AFGE DFAG|
EFFA GE~E2|FDFG ABAG|~F3A GE~E2|AFGE D4|
Addc dcAd|AGFG AB=cB|Addc dcAB|=c2AG ~G2FG|
Adde dcAd|AGFG AB=cB|Addc defd|egfd ecAG|

